img/webUI/newdesign/Cuenta.svg

<?xml version="1.0" standalone="no"?>
<!DOCTYPE svg PUBLIC "-//W3C//DTD SVG 1.0//EN" "http://www.w3.org/TR/2001/REC-SVG-20010904/DTD/svg10.dtd">
<svg xmlns="http://www.w3.org/2000/svg" xmlns:xlink="http://www.w3.org/1999/xlink" id="body_1" width="35" height="26">

<g transform="matrix(1.04 0 0 1.04 4.5 -0)">
	<g>
        <path d="M15.13 13.96C 16.41 13.09 17.27 11.6 17.27 9.91C 17.27 7.2299995 15.13 5.0499997 12.51 5.0499997C 9.89 5.0499997 7.74 7.22 7.74 9.91C 7.74 11.6 8.59 13.09 9.88 13.96C 6.9700003 15.06 4.8900003 17.91 4.8900003 21.26L4.8900003 21.26L6.1600003 21.26C 6.1600003 17.68 9.01 14.77 12.51 14.77C 16.01 14.77 18.86 17.68 18.86 21.26L18.86 21.26L20.130001 21.26C 20.12 17.91 18.03 15.06 15.13 13.96zM12.5 13.47C 10.58 13.47 9.01 11.87 9.01 9.900001C 9.01 7.9300013 10.58 6.330001 12.5 6.330001C 14.42 6.330001 15.99 7.930001 15.99 9.900001C 15.99 11.870001 14.42 13.47 12.5 13.47z" stroke="none" fill="#000000" fill-rule="nonzero" />
        <path d="M1.3900003 12.5C 1.3900003 6.2315674 6.364116 1.1499996 12.5 1.1499996C 18.635883 1.1499996 23.61 6.2315674 23.61 12.5C 23.61 18.768433 18.635883 23.85 12.5 23.85C 6.364116 23.85 1.3900003 18.768433 1.3900003 12.5" stroke="#000000" stroke-width="1.2832" fill="none" />
	</g>
</g>
</svg>

<?xml version="1.0" encoding="utf-8"?>
<!-- Generator: Adobe Illustrator 26.3.1, SVG Export Plug-In . SVG Version: 6.00 Build 0)  -->
<svg version="1.1" id="Capa_1" xmlns="http://www.w3.org/2000/svg" xmlns:xlink="http://www.w3.org/1999/xlink" x="0px" y="0px"
	 viewBox="0 0 25 25" style="enable-background:new 0 0 25 25;" xml:space="preserve">
<style type="text/css">
	.st0{fill:none;stroke:#000000;stroke-width:1.2832;stroke-miterlimit:10;}
</style>
<g>
	<path d="M15.13,13.96c1.28-0.87,2.14-2.36,2.14-4.05c0-2.68-2.14-4.86-4.76-4.86S7.74,7.22,7.74,9.91c0,1.69,0.85,3.18,2.14,4.05
		c-2.91,1.1-4.99,3.95-4.99,7.3h1.27c0-3.58,2.85-6.49,6.35-6.49c3.5,0,6.35,2.91,6.35,6.49h1.27
		C20.12,17.91,18.03,15.06,15.13,13.96z M12.5,13.47c-1.92,0-3.49-1.6-3.49-3.57s1.57-3.57,3.49-3.57s3.49,1.6,3.49,3.57
		S14.42,13.47,12.5,13.47z"/>
	<ellipse class="st0" cx="12.5" cy="12.5" rx="11.11" ry="11.35"/>
</g>
</svg>
